!!!CDT:
!!!PTL: Il secondo libro de madrigali a cinque voci
!!!PPP: Venice
!!!PPR: Angelo Gardano
!!!PDT: 1608
!!!PUB-format:
!!!RISM: C 912
!!!rime: 160
!!!AGN: Madrigal
!!!SCT: Trm0160a
!!!SCA: Trm0160a
!!!original-voices: 5
!!!extant-voices: 2
!!!complete: N
!!!final: G
!!!COM: Capilupi, Geminiano
!!!OTL: Poi che non spira al mio soave foco
**kern	**text	**kern	**text
*part2	*part2	*part1	*part1
*staff2	*staff2	*staff1	*staff1
*I"Quinto	*	*I"Tenore	*
*I'V	*	*I'T	*
*oclefC3	*	*oclefC3	*
*clefGv2	*	*clefGv2	*
*k[]	*	*k[]	*
*omet(C)	*	*omet(C)	*
*M4/2	*	*M4/2	*
=1	=1	=1	=1
!!LO:TX:a:t=Sestina. Prima parte.
0r	.	1d	Poi
.	.	4B	che
.	.	4G	non
.	.	4B	spi-
.	.	4c	-r'al
=2	=2	=2	=2
0r	.	2d	mio
.	.	2d	so-
.	.	2c#X	-a-
.	.	2d	-ve
=3	=3	=3	=3
0r	.	2.d	fo-
.	.	4e	.
.	.	1f	.
=4	=4	=4	=4
2r	.	1e	-co,
2A	A-	.	.
2e	-mor,	2r	.
4r	.	2e	A-
4A	co-	.	.
=5	=5	=5	=5
4A	-me	2a	-mor,
4A	so-	.	.
2d	-lea,	4r	.
.	.	4d	co-
4r	.	4d	-me
4.g	pla-	4d	so-
.	.	2g	-lea,
8f	-ci	.	.
4e	da	.	.
=6	=6	=6	=6
2d	l'Au-	4r	.
.	.	4.a	pla-
2d	-ra,	.	.
.	.	8g	-ci-
.	.	4f	-da
1r	.	2e	l'Au-
.	.	[2d	-ra,
=7	=7	=7	=7
4r	.	2d]	.
4.g	pla-	.	.
.	.	2r	.
8f	-ci-	.	.
4e	-da	.	.
8fL	l'Au-	4r	.
8e	.	.	.
8d	.	4.f	<pla-
8eJ	.	.	.
4f	.	.	.
.	.	8e	-ci-
4g	.	4d	-da
=8	=8	=8	=8
2e	-ra,	2c	l'Au-
2r	.	2B	-ra,>
4.g	<pla-	4r	.
.	.	4.g	pla-
8f	-ci-	.	.
2e	-da	.	.
.	.	8f	-ci-
.	.	4e	-da
=9	=9	=9	=9
2f	l'Au-	8dL	l'Au-
.	.	8c	.
.	.	8d	.
.	.	8eJ	.
4c	-ra,>	4.f	.
4.f	pla-	.	.
.	.	8g	.
.	.	1a	.
8e	-ci-	.	.
4d	-da	.	.
2e	l'Au-	.	.
=10	=10	=10	=10
1d	-ra,	1a	-ra,
4r	.	1r	.
4d	Che	.	.
[2g	tem-	.	.
=11	=11	=11	=11
4g]	.	1r	.
4f#X	-pre-	.	.
4g	-rà	.	.
4e	que-	.	.
4f#X	-st'a-	4r	.
4g	-mo-	4G	Che
4c	-ro-	[2g	tem-
4c	-sa	.	.
=12	=12	=12	=12
2d	fiam-	4g]	.
.	.	4f#X	-pre-
2g	-ma?	4g	-rà
.	.	4e	que-
1r	.	4f#X	-st'a-
.	.	4g	-mo-
.	.	4c	-ro-
.	.	4c	-sa
=13	=13	=13	=13
2r	.	2d	fiam-
4r	.	2G	-ma?
2d	Qual	.	.
.	.	4r	.
8B	tro-	2d	Qual
8A	-ve-	.	.
[2G	-rò	.	.
.	.	8c	tro-
.	.	8B	-ve-
=14	=14	=14	=14
4G]	.	4e	-rò
4G	so-	4d	so-
4G	-lin-	2c	-lin-
4c	-ga e	.	.
8GL	chia-	4B	-ga
8A	.	.	.
8B	.	4d	e
8cJ	.	.	.
8dL	.	8GL	chia-
8c	.	8A	.
8d	.	8B	.
8eJ	.	8cJ	.
=15	=15	=15	=15
4.f	.	4d	.
.	.	4c	-ra,
16eL	.	.	.
16dJ	.	.	.
4e	.	2r	.
4e	-ra, e	.	.
4a	chia-	1r	.
4d	-ra	.	.
8eL	fon-	.	.
8dJ	.	.	.
4c	.	.	.
=16	=16	=16	=16
2d	-te	4r	.
.	.	4g	e
2r	.	8cL	chia-
.	.	8d	.
.	.	8e	.
.	.	8fJ	.
4r	.	4g	.
2g	Cin-	4G	-ra
.	.	2d	fon-
8f	-ta	.	.
8e	di	.	.
=17	=17	=17	=17
4f	lau-	2d	-te,
4d	-ri o	.	.
8e	qual	2r	.
8f	om-	.	.
2g	-bro-	.	.
.	.	4r	.
4g	-so	4g	e
2a	ri-	8cL	chia-
.	.	8d	.
.	.	8e	.
.	.	8fJ	.
=18	=18	=18	=18
4d	-vo,	4g	.
2g	Cin-	4e	-ra
.	.	2d	fon-
8f	-ta	.	.
8e	di	.	.
4f	lau-	2d	-te
4d	-ri o	.	.
4e	qual	2r	.
4f#X	om-	.	.
=19	=19	=19	=19
4g	-bro-	2r	.
4g	-so	.	.
4f#X	ri-	4r	.
4g	-vo,	2g	Cin-
1r	.	.	.
.	.	8f	-ta
.	.	8e	di
.	.	4f	lau-
.	.	4d	-ri o
=20	=20	=20	=20
4r	.	4B	qual
2a	<Cin-	4c	om-
.	.	4d	-bro-
8g	-ta	4d	-so
8fnXi	di	.	.
4e	lau-	4c	ri-
4g	-ri o	4d	.
4e	qual	[2e	.
4f	om-	.	.
=21	=21	=21	=21
2.g	-bro-	2e]	.
.	.	2c	-vo,
4e	-so	.	.
2d	ri-	1r	.
2d	-vo,>	.	.
=22	=22	=22	=22
2r	.	1B	Men-
2.e	Men-	.	.
.	.	2B	-tr'io
2e	-tr'io	.	.
.	.	4B	sfac-
4e	mi	[4e	-cio a
=23	=23	=23	=23
2c	sfac-	4e]	.
.	.	4e	sì
2B	-cio a	2.e	lu-
2e	sì,	.	.
.	.	2a	-cen-
2r	.	.	.
.	.	[4d	.
=24	=24	=24	=24
4r	.	8d]L	.
.	.	8c	.
4d	a	8B	.
.	.	8cJ	.
4g	sì	1d	.
4G	lu-	.	.
8BL	-cen-	.	.
8A	.	.	.
8B	.	.	.
8cJ	.	.	.
4d	.	2A	-ti
4d	-ti	.	.
=25	=25	=25	=25
1e	rag-	4c#X	rag-
.	.	2d	.
.	.	4c#i	.
1f#Xl	-gi?	1dl	-gi?
=26||	=26||	=26||	=26||
!!LO:TX:a:t=Seconda parte.
2.d	Ahi!	2.f	Ahi!
4g	so-	4g	so-
2fnX	-a-	2a	-a-
4c	-vi	4.g	-vi
4B-X	ben	.	.
.	.	8d	ben
=27	=27	=27	=27
2.A	fu-	2e	fu-
.	.	2a	-ro e
4A	-ro e	.	.
2d	dol-	2.a	dol-
2f	-ci i	.	.
.	.	4a	-ci i
=28	=28	=28	=28
1e	rag-	4g#X	rag-
.	.	2a	.
.	.	4g#X	.
2A	-gi	2a	-gi
4r	.	4r	.
4c#X	Ch'ac-	4e	Ch'ac-
=29	=29	=29	=29
4.c#i	-ce-	4.e	-ce-
8c#i	-ser	8e	-ser
4c#i	già	4e	già
4d	ne	4d	ne
2d	l'al-	2.gnXi	l'al-
2g	-ma	.	.
.	.	4g	-ma il
=30	=30	=30	=30
4r	.	2f	dol-
4d	il	.	.
4g	dol-	2d	-ce
4g	-ce	.	.
4f	fo-	4c#X	fo-
8eL	.	2d	.
8dJ	.	.	.
2e	.	.	.
.	.	4c#i	.
=31	=31	=31	=31
2f#X	-co,	2d	-co,
2g	Stru-	2d	Stru-
2g	-gen-	2e	-gen-
4g	-d'il	2e	-do,
[4e	ge-	.	.
=32	=32	=32	=32
4e]	.	4r	.
4g	-l'in-	4G	Stru-
2e	-ter-	2c	-gen-
2e	-no	4c	-d'il
.	.	2c	ge-
4r	.	.	.
4d	in	4B	-l'in-
=33	=33	=33	=33
8eL	cal-	4c	-ter-
8d	.	.	.
8c	.	4c	-no
8BJ	.	.	.
4A	.	4r	.
4a	-do	4d	in
8gL	ri-	2B	cal-
8f	.	.	.
8e	.	.	.
8dJ	.	.	.
4c	.	2c	-do
4A	-vo,	.	.
=34	=34	=34	=34
4r	.	4.d	ri-
4a	in	.	.
.	.	8e	.
2f	cal-	8fL	.
.	.	8gJ	.
.	.	4a	.
2g	-do	2g	-vo,
4.a	ri-	2r	.
8g	.	.	.
=35	=35	=35	=35
8fL	.	4r	.
8eJ	.	.	.
4.d	.	4G	in
.	.	2d	cal-
8cL	.	.	.
8d	.	.	.
8eJ	.	.	.
8fL	.	2d	-do
8dJ	.	.	.
2g	.	.	.
.	.	[2d	ri-
4f#X	.	.	.
=36	=36	=36	=36
0g	-vo	2d]	.
.	.	2d	-vo
.	.	1r	.
=37	=37	=37	=37
1r	.	4g	E
.	.	4a	mo-
.	.	4g	-ven-
.	.	8g	-d'i
.	.	8f	so-
4g	E	4e	-spi-
4a	mo-	4f	-ri a
4g	-ven-	4.e	gui-
8g	-d'i	.	.
8f	so-	8c	-sa
=38	=38	=38	=38
2e	-spir,	4g	d'Au-
.	.	4c	-ra,
4e	<E	2r	.
4f	mo-	.	.
4e	-ven-	1r	.
8e	-d'i	.	.
8d	so-	.	.
4c	-spir>	.	.
4e	a	.	.
=39	=39	=39	=39
4d	gui-	1r	.
4c	-sa	.	.
2g	d'Au-	.	.
2g	-ra	2r	.
2d	Men-	[2f	Men-
=40	=40	=40	=40
2d	-tre	2f]	.
8r	.	2d	-tre
8g	d'o-	.	.
8f	-gni	.	.
8e	pie-	.	.
4.d	-tà	2r	.
8e	.	.	.
2f	.	8r	.
.	.	8a	d'o-
.	.	8g	-gni
.	.	8f	pie-
=41	=41	=41	=41
4r	.	8g	-tà
.	.	8e	la
4c	a	8d	vi-
.	.	8c	-va
4G	tan-	4g	fon-
4B-X	-ta	4f	-te,
8FL	fiam-	8r	.
8G	.	8f	la
8A	.	8e	vi-
8BnXiJ	.	8d	-va
8cL	.	4e	fon-
8d	.	.	.
8e	.	4e	-te
8cJ	.	.	.
=42	=42	=42	=42
4f	.	4r	.
4d	-ma,	4f	Diè
2r	.	4.e	qual-
.	.	8e	-che
8r	.	4.d	re-
8a	d'o-	.	.
8g	-gni	.	.
8f	pie-	8d	-fri-
8g	-tà	4c	-ge-
8g	la	.	.
8f	vi-	4c	-rio,
8e	-va	.	.
=43	=43	=43	=43
4f	fon-	8r	.
.	.	8f	d'o-
4f	-te	8e	-gni
.	.	8d	pie-
2r	.	8e	-tà
.	.	8e	la
.	.	8d	vi-
.	.	8c	-va
2r	.	4d	fon-
.	.	8G	-te
.	.	8g	Diè
4d	a	4.f	qual-
4A	tan-	.	.
.	.	8f	-che
=44	=44	=44	=44
4c	-ta	4.e	re-
8GL	fiam-	.	.
8AJ	.	8e	-fri-
8BL	.	4d	-ge-
8c	.	.	.
8d	.	4d	-rio a
8BJ	.	.	.
4.e	.	4e	tan-
.	.	4g	-ta
8d	.	.	.
8cL	.	2g	fiam-
8BJ	.	.	.
4c	.	.	.
=45	=45	=45	=45
0d	-ma.	0g	-ma.
=46||	=46||	=46||	=46||
!!LO:TX:a:t=Terza parte.
0r	.	0r	.
=47	=47	=47	=47
0r	.	0r	.
=48	=48	=48	=48
4g	D'Et-	1r	.
8g	-na	.	.
8g	so-	.	.
4g	-mi-	.	.
4f	-glia	.	.
8e	pur	4c	D'Et-
8d	l'ac-	.	.
8e	-ce-	8c	-na
8f	-sa	8c	so-
4g	fiam-	4c	-mi-
8g	-ma	4B	-glia
8g	O	.	.
=49	=49	=49	=49
8f	di	8A	pur
8e	Fe-	8G	l'ac-
8f	-ton-	8A	-ce-
8g	-te	8B	-sa
4.a	tra-	4c	fiam-
.	.	8c	-ma
8f	-vi-	8d	O
4g	-ta-	8B	di
.	.	8A	Fe-
4e	-to	8B	-ton-
.	.	8c	-te
2r	.	4d	tra-
.	.	4d	-vi-
=50	=50	=50	=50
2c	Quan-	4.g	-a-
.	.	8a	-to i
4c	-do	2e	rag-
4c	s'a-	.	.
2c	-sco-	2f	-gi,
2c	-se	2r	.
=51	=51	=51	=51
4.G	ne	2g	Quan-
8A	l'oc-	.	.
4B	-cul-	4g	-do
4B	-to	4g	s'a-
2c	fon-	2g	-sco-
2c	-te,	2g	-se
=52	=52	=52	=52
4.e	ne	4.c	ne
8f	l'oc-	8d	l'oc-
2.g	-cul-	2.e	-cul-
4g	-to	4e	-tp
2a	fon-	2f	fon-
=53	=53	=53	=53
2g	-te,	4e	-te
.	.	4e	Il
2r	.	4d	Ni-
.	.	4f	-lo
1r	.	4F	per
.	.	4F	fug-
.	.	8c	-gir
.	.	8d	l'ar-
.	.	8e	-den-
.	.	8f	-te
=54	=54	=54	=54
2d	Quan-	4g	fo-
.	.	4g	-co,
4B	-do	2r	.
4B	s'a-	.	.
2B	-sco-	4r	.
.	.	4d	Quan-
2B	-se	4d	-do
.	.	4d	s'a-
=55	=55	=55	=55
4.B	ne	2d	-sco-
8A	l'oc-	.	.
4B	-cul-	2d	-se
4B	-to	.	.
2c	fon-	4.a	ne
.	.	8g	l'oc-
4c	-te	4f	-cul-
4g	Il	4d	-to
=56	=56	=56	=56
2g	Ni-	2e	fon-
2g	-lo	4e	-te
.	.	4d	Il
2r	.	4e	Ni-
.	.	4c	-lo
4g	per	4B	per
4a	fug-	4c	fug-
=57	=57	=57	=57
4f	-gir	8c	-gir
.	.	8d	l'ar-
4e	l'ar-	8e	-den-
.	.	8g	-te
4a	-den-	4.f	fo-
2A	-te	.	.
.	.	8e	.
.	.	8fL	.
.	.	8e	.
2c	fo-	8e	.
.	.	16d	.
.	.	16cJ	.
.	.	2d	.
4B	-co,	.	.
=58	=58	=58	=58
4r	.	2c	-co
2g	Né	.	.
.	.	4r	.
4e	da	2c	Né
2a	l'I-	.	.
.	.	4A	da
[2f	-stro o	2d	l'I-
=59	=59	=59	=59
4f]	.	4d	-stro o
4g	dal	4c	dal
2a	Rhe-	2f	Rhe-
2g	-no	4c	-no
.	.	4c	o
2r	.	[2g	ven-
=60	=60	=60	=60
0r	.	4g]	.
.	.	4g	-to
.	.	4.f	d'Au-
.	.	8d	.
.	.	1e	.
=61	=61	=61	=61
4r	.	2d	-ra
4d	Sof-	.	.
8dL	-fiar	2r	.
8e	.	.	.
8d	.	.	.
8cJ	.	.	.
4B	.	4r	.
4G	po-	4d	Sof-
2c	-tea,	8eL	-fiar
.	.	8f	.
.	.	8e	.
.	.	8dJ	.
=62	=62	=62	=62
4r	.	4c	.
4e	<Sof-	4g	po-
8eL	-fiar	2c	-tea
8f	.	.	.
8e	.	.	.
8dJ	.	.	.
4c	.	1r	.
4c	po-	.	.
2g	-tea>	.	.
=63	=63	=63	=63
2c	non	2r	.
4c	che	2f	non
4c	da	.	.
2c	sec-	4f	che
.	.	4f	da
2A	-co	2c	sec-
=64	=64	=64	=64
2a	ri-	2A	-co
2.g	.	4e	ri-
.	.	4d	.
.	.	2.c	.
4f	.	.	.
4e	.	.	.
4d	.	4d	.
=65	=65	=65	=65
4c	.	4e	.
4A	.	4f	.
1c	.	2e	.
.	.	[1g	-vo.
4B	.	.	.
4A	.	.	.
=66	=66	=66	=66
0B	-vo.	0g]	.
=67||	=67||	=67||	=67||
!!LO:TX:a:t=Quarta parte.
1g	Che	2r	.
.	.	2g	Che
2c	gio-	2.g	gio-
2e	-v'ohi-	.	.
.	.	4g	-v'ohi-
=68	=68	=68	=68
2.d	-mè,	2a	-mè,
.	.	2r	.
4g	ver-	.	.
2.f	-sar	1r	.
4d	nel	.	.
=69	=69	=69	=69
2.c	se-	0r	.
4B	-n'un	.	.
8cL	ri-	.	.
8d	.	.	.
8e	.	.	.
8fJ	.	.	.
8gL	.	.	.
8G	.	.	.
8B	.	.	.
8cJ	.	.	.
=70	=70	=70	=70
1d	.	2r	.
.	.	2d	Se
1G	-vo,	4d	cre-
.	.	4d	-sce al
.	.	4d	tuo
.	.	4d	stil-
=71	=71	=71	=71
2r	.	1g	-lar
2d	Se	.	.
4e	cre-	1r	.
4e	-sce al	.	.
4e	tuo	.	.
4e	stil-	.	.
=72	=72	=72	=72
1a	-lar	2.f	la
.	.	4f	cru-
1r	.	1e	-del
=73	=73	=73	=73
1r	.	2d	fiam-
.	.	2c	-ma,
2r	.	2c	la
[2e	la	2B	cru-
=74	=74	=74	=74
4e]	.	2A	-del,
4e	cru-	.	.
2d	-del	2.f	la
2.c	fiam-	.	.
.	.	4f	cru-
.	.	[2e	-del
4B	.	.	.
=75	=75	=75	=75
2c	.	2e]	.
2d	.	1d	fiam-
1e	.	.	.
.	.	2c#X	.
=76	=76	=76	=76
1f#X	-ma	2d	-ma
.	.	2d	E
2e	E	4B	de'
.	.	4B	la-
4e	de'	2B	-men-
4e	la-	.	.
=77	=77	=77	=77
2.e	-men-	2B	-ti
.	.	2e	miei
4e	-ti	.	.
2g	miei	4r	.
.	.	4g	s'ac-
2r	.	8aL	.
.	.	8g	.
.	.	8f	.
.	.	8aJ	.
=78	=78	=78	=78
1r	.	4g	-cen-
.	.	4e	-de
.	.	2d	l'Au-
2r	.	2c	-ra?
4g	Se	4e	Se
4g	non	4e	non
=79	=79	=79	=79
2g	man-	2e	man-
4c	-c'ho-	4f	-ca ho-
4c	-mai	4g	-mai
4.d	l'e-	4.g	l'e-
8G	-sca a	8g	-sca a
4A	que-	4f	que-
4A	-sti	4e	-sti
=80	=80	=80	=80
2d	rag-	2g	rag-
2d	-gi,	2g	-gi,
2.e	Io	2.g#X	Io
4e	fon-	4g#i	fon-
=81	=81	=81	=81
2.e	-ta-	4g#i	-ta-
.	.	8a	-na
.	.	8a	fa-
.	.	4gnXi	-rò
8B	-na	4e	di
8B	fa-	.	.
2A	-rò,	4c	vi-
.	.	4A	-vo,
2r	.	4a	di
.	.	8f	vi-
.	.	8d	-vo
=82	=82	=82	=82
4r	.	4e	fo-
2d	Io	4d	-co,
.	.	2r	.
4d	fon-	.	.
4d	-ta-	4r	.
8B	-na	2g	Io
8G	fa-	.	.
2g	-rò	.	.
.	.	4g	fon-
=83	=83	=83	=83
2r	.	4g	-ta-
.	.	8e	-na
.	.	8c	fa-
4r	.	2g	-rò
4g	di	.	.
4e	vi-	2r	.
8c	-vo	.	.
4f	fo-	.	.
.	.	4r	.
8e	.	.	.
4f	-co,	4a	di
=84	=84	=84	=84
4r	.	4g	vi-
4a	<di	4f	-vo
4g	vi-	4g	fo-
4f	-vo	4d	-co,
4e	fo-	1r	.
4e	-co,>	.	.
2r	.	.	.
=85	=85	=85	=85
1r	.	2r	.
.	.	2c#X	Né
2r	.	2d	mi
[2d	Né	2B-X	var-
=86	=86	=86	=86
4d]	.	2A	-rà,
8c	mi	.	.
8B	var-	.	.
4c	-rà	2r	.
4d	ch'io	.	.
4e	mi	4r	.
4e	con-	2g	<Né
2d	-ver-	.	.
.	.	8f	mi
.	.	8e	var-
=87	=87	=87	=87
2d	-ta,	4d	-rà>
.	.	4e	ch'io
4r	.	4f	mi
4d	ch'io	4g	con-
4e	mi	2a	-ver-
4f	con-	.	.
2g	-ver-	2g	-ta,
=88	=88	=88	=88
2f#X	-ta in	4r	.
.	.	4d	ch'io
1g	fon-	4d	mi
.	.	4c	con-
.	.	4B	-ver-
.	.	4B-X	-ta in
2f#i	.	2A	fon-
=89	=89	=89	=89
0g	-te.	0G	-te.
=90||	=90||	=90||	=90||
!!LO:TX:a:t=Quinta parte.
0r	.	2d	Per-
.	.	2.g	-ché
.	.	4g	la
.	.	[2g	dol-
=91	=91	=91	=91
0r	.	2g]	.
.	.	2d	-ce
.	.	2g	mia
.	.	2c	tran-
=92	=92	=92	=92
2r	.	4c	-quil-
.	.	4c	-la
4r	.	2c	fon-
4c	Più	.	.
4e	non	2c	-te
4g	mi	.	.
8cL	scam-	2r	.
8dJ	.	.	.
[4e	.	.	.
=93	=93	=93	=93
8e]L	.	1r	.
8cJ	.	.	.
2d	.	.	.
4d	-pi	.	.
4r	.	4r	.
4B	o	4d	o
4B	fiu-	4d	fiu-
4B	-me al-	4d	-me al-
=94	=94	=94	=94
2c	-gen-	2e	-gen-
2c#X	-te o	2e	-te o
2.d	ri-	2A	ri-
.	.	2A	-vo,
4cnXi	.	.	.
=95	=95	=95	=95
4B	.	4r	.
8AL	.	4f	o
8GJ	.	.	.
2c	.	1g	ri-
1d	-vo,	.	.
.	.	2g	-vo
=96	=96	=96	=96
2r	.	4.e	Fug-
.	.	8f	-gi-
4.c	Fug-	4g	-rò'l
.	.	2a	fo-
8d	-gi-	.	.
2e	-rò'l	.	.
.	.	4g	-co
2f	fo-	4r	.
.	.	4a	in
=97	=97	=97	=97
2e	-co,	4a	me-
.	.	4g	-z'al
4.f	Fug-	4f	no-
.	.	4d	-vo
8g	-gi-	.	.
2a	-rò,	2c	fo-
4r	.	4f	-co,
8A	Fug-	4f	<in
8B	-gi-	.	.
=98	=98	=98	=98
2c	-rò,	4f	me-
.	.	4e	-z'al
4r	.	4d	no-
8f	<Fug-	4d	-vo
8g	-gi-	.	.
2a	-rò> il	4c	fo-
.	.	4F	-co,>
2g	fo-	2r	.
=99	=99	=99	=99
4f	-co	2r	.
4f	in	.	.
4f	me-	4.g	Fug-
4e	-z'al	.	.
.	.	8g	-gi-
4f	no-	4a	-rò'l
4d	-vo-	2a	fo-
4d	-fo-	.	.
4c#X	.	4g	-c'in
=100	=100	=100	=100
2d	-co,	4f	me-
.	.	4f	-z'al
2r	.	4e	no-
.	.	4d	-vo
1r	.	4.a	fo-
.	.	16gL	.
.	.	16fJ	.
.	.	8gL	.
.	.	8dJ	.
.	.	[4f	.
=101	=101	=101	=101
1r	.	4f]	.
.	.	4e	.
.	.	2f	-co,
2.e	E	1c	E
8A	le	.	.
8A	mie	.	.
=102	=102	=102	=102
2B	fiam-	2e	le
4A	-me,	2e	mie
2a	<E	.	.
.	.	1f#X	fiam-
8d	le	.	.
8d	mie	.	.
2d	fiam-	.	.
=103	=103	=103	=103
2d	-me>	2g	-me
2.c	strug-	2.e	strug-
4d	-ge-	4f#X	-ge-
4e	-rà	4g	-rà
4f#X	la	4a	la
=104	=104	=104	=104
2g	fiam-	2d	fiam-
4g	-ma	2d	-ma
4g	Che	.	.
8eL	nac-	1r	.
8fnXi	.	.	.
8g	.	.	.
8eJ	.	.	.
4f	.	.	.
4a	-que in	.	.
=105	=105	=105	=105
1g#X	me	2r	.
.	.	4r	.
.	.	4e	da
1r	.	4.a	gl'a-
.	.	8g	-mo-
.	.	4f	-ro-
.	.	4f	-si
=106	=106	=106	=106
0r	.	1g	rag-
.	.	1c	-gi,
!!LO:TX:a:cj:t=[whole] &rarr; [whole-dot]
=107	=107	=107	=107
*M6/2	*	*M6/2	*
*omet(3)	*	*omet(3)	*
!!LO:TX:a:t=3
2e	Men-	2g	Men-
2c	-t'rio	2f	-tr'io
2c	gio-	2e	gio-
4B	-i-	2d	-i-
4c	.	.	.
4d	.	2g	-va
4e	.	.	.
2B	.	4g	il
.	.	4f	se-
=108	=108	=108	=108
2c	-va	4e	.
.	.	4d	.
2r	.	2c	.
2g	il	2d	-n'a-
2e	se-	2e	-pren-
2a	-n'a-	2A	-do,
4a	-pren-	2c	a-
4g	.	.	.
=109	=109	=109	=109
4f	.	2.d	-pren-
4e	.	.	.
1d	.	.	.
.	.	4c	.
.	.	4B	.
.	.	4A	.
2c	-d'a	2G	.
1G	l'Au-	4c	-d'a
.	.	2c	l'Au-
.	.	4B	.
=110	=110	=110	=110
1.G	-ra,	1.c	-ra,
2c	Men-	2e	Men-
2c	-tr'io	2f	-tr'io
2c	gio-	2g	gio-
=111	=111	=111	=111
1d	-i-	1g	-i-
2d	-va il	2a	-va il
2e	se-	2a	se-
2e	-n'a-	2A	-n'a-
2A	-pren-	2c	-pren-
=112	=112	=112	=112
2A	-d'a	2d	-d'a
1A	l'Au-	1c#X	l'Au-
1.A	-ra.	1.d	-ra.
!!LO:TX:a:cj:t=[whole-dot] &rarr; [whole]
=113||	=113||	=113||	=113||
*M4/2	*	*M4/2	*
*omet(C)	*	*omet(C)	*
!!LO:TX:a:t=Sesta parte.
0r	.	0r	.
=114	=114	=114	=114
0r	.	1g	o
.	.	1e	pa-
=115	=115	=115	=115
1r	.	2d	-me, o-
.	.	2d	-ve
2r	.	4c	gia-
.	.	4d	-cen-
2c	o-	4e	-d'a
.	.	4f	l'Au-
=116	=116	=116	=116
4G	-ve	4g	.
4A	gia-	8fL	.
.	.	8eJ	.
4B	-cen-	4d	.
4c	-d'a	4e	.
4d	l'Au-	2f	.
8cL	.	.	.
8BJ	.	.	.
4A	.	2c	-ra,
4B	.	.	.
=117	=117	=117	=117
2c	.	2r	.
2G	-ra,	4r	.
.	.	4g	o-
1r	.	4d	-ve
.	.	4e	gia-
.	.	4f	-cen-
.	.	4g	-d'a
=118	=118	=118	=118
0r	.	4a	l'Au-
.	.	8gL	.
.	.	8fJ	.
.	.	2.e	.
.	.	4d	.
.	.	2c	.
=119	=119	=119	=119
1g	o	2d	-ra
.	.	2r	.
1f	pal-	1r	.
=120	=120	=120	=120
2e	-me,	4g	Per
.	.	4g	dol-
2r	.	1g	-cez-
1r	.	.	.
.	.	4f#X	-za
.	.	4g	lan-
=121	=121	=121	=121
2r	.	4a	-gui-
.	.	4d	-va,
4d	Per	2r	.
4d	dol-	.	.
[1d	-cez-	4g	Per
.	.	4g	dol-
.	.	2G	-cez-
=122	=122	=122	=122
2d]	.	1A	-za
4d	-za	.	.
4e	lan-	.	.
2f	-gui-	2r	.
4e	.	4r	.
4d	.	4f	lan-
=123	=123	=123	=123
4e	.	4c	-gui-
4A	-va;	2d	.
2r	.	.	.
.	.	4c#X	.
2r	.	2d	-va;
4r	.	2r	.
4d	o	.	.
=124	=124	=124	=124
4g	bel-	2r	.
4c	-la	.	.
4d	fon-	4r	.
4d	-te,	4d	o
1r	.	4g	bel-
.	.	4cnX	-la
.	.	2d	fon-
=125	=125	=125	=125
4G	In	4d	-te,
2c	cui	4e	In
.	.	4e	cui
4F	già	4a	già
8c	vid-	8g	vid-
8c	-di	8g	-di
8c	tre-	8g	tre-
8c	-mo-	8g	-mo-
4B	-lar	4g	-lar
4c	i	4G	i
=126	=126	=126	=126
2A	rag-	4.c	rag-
.	.	8A	.
2e	-gi,	4B	.
.	.	4.c	.
4r	.	.	.
.	.	8BL	.
4d	i	8B	.
.	.	16A	.
.	.	16GJ	.
2d	rag-	2A	.
=127	=127	=127	=127
1d	-gi:	1G	-gi;
1e	O	2r	.
.	.	2B	O
=128	=128	=128	=128
4.e	so-	4.B	so-
8e	-li-	8B	-li-
4e	-ta-	4B	-ta-
4e	-ria	4e	-ria
1d	chio-	2A	chio-
.	.	2A	-stra,
=129	=129	=129	=129
2c#X	-stra,	4r	.
.	.	4a	o
2r	.	4e	va-
.	.	4f	-go
1r	.	8cL	ri-
.	.	8d	.
.	.	8e	.
.	.	8fJ	.
.	.	4g	.
.	.	8fL	.
.	.	8eJ	.
=130	=130	=130	=130
1r	.	1d	.
4r	.	2c	-vo;
4e	S'io	.	.
[2g	tro-	4r	.
.	.	4e	S'io
=131	=131	=131	=131
2g]	.	2e	tro-
2d	-v'an-	2a	-v'an-
2e	-cor	2a	-cor
4a	quel-	2r	.
8a	-la	.	.
8a	mia	.	.
=132	=132	=132	=132
2f	bel-	4a	quel-
.	.	8a	-la
.	.	8a	mia
2c	-la	4a	ca-
.	.	4g	-ra
2d	fiam-	2g	fiam-
4d	-ma	2g	-ma
4g	Tra i	.	.
=133	=133	=133	=133
2f	fio-	2r	.
2e	-r'e	4r	.
.	.	4g	Tra i
2f	l'her-	4.a	fio-
.	.	16gL	.
.	.	16fJ	.
2c	-be	4g	.
.	.	4e	-r'e
=134	=134	=134	=134
1r	.	2f	l'her-
.	.	2e	-be
8r	.	8r	.
8a	o-	8f	o-
8g	-v'è	8e	-v'è
8f	spa-	8d	spa-
4e	-ri-	4g	-ri-
4e	-to,	4g	-to,
=135	=135	=135	=135
2r	.	8r	.
.	.	8g	<o-
.	.	8f	-v'è
.	.	8e	spa-
4r	.	4d	-ri-
4g	Tra i	4d	-to,>
4.a	fio-	2r	.
16gL	.	.	.
16fJ	.	.	.
4g	.	4r	.
4e	-r'e	4c	Tra i
=136	=136	=136	=136
2f	l'her-	2F	fio-
2g	-be	1c	-r'e
2r	.	.	.
8r	.	2d	l'her-
8g	o-	.	.
8f	-v'è	.	.
8e	spa-	.	.
=137	=137	=137	=137
2d	-ri-	2G	-be
2e	-to il	8r	.
.	.	8e	o-
.	.	8d	-v'è
.	.	8c	spa-
4a	fo-	4d	-ri-
2g	.	4B	-to'l
.	.	2A	fo-
4f#X	.	.	.
=138	=138	=138	=138
0g	-co.	0G	-co.
=139||	=139||	=139||	=139||
!!LO:TX:a:t=Settima, ed ultima parte.
0r	.	0r	.
=140	=140	=140	=140
2r	.	4r	.
.	.	4c	o
2f	O	8AL	spi-
.	.	8B	.
.	.	8c	.
.	.	8dJ	.
4g	s'e-	2e	-ri
2a	-stin-	.	.
.	.	4A	l'Au-
8g	-gua'l	[4d	.
8f	mio	.	.
=141	=141	=141	=141
2e	fo-	4d]	.
.	.	4c#X	.
2d	-co,	4d	-ra,
.	.	4f	O
2r	.	4g	s'e-
.	.	2a	-stin-
4r	.	.	.
4A	<O	8g	-gua'l
.	.	8f	mio
=142	=142	=142	=142
4B	s'e-	4.e	fo-
2c	-stin-	.	.
.	.	8d	.
.	.	4cnXi	.
8B	-gua'l	4d	-co,
8A	mio	.	.
2e	fo-	2r	.
4A	-co,>	4r	.
4f	<O	4d	O
=143	=143	=143	=143
4g	s'e-	4e	s'e-
2a	-stin-	2f	-stin-
8g	-gua'l	8e	-gua'l
8f	mio	8d	mio
4e	fo-	2c	fo-
4f	.	.	.
2g	.	2d	-co,
=144	=144	=144	=144
4c	-co,>	4.f	<O
4c	o	.	.
.	.	8g	s'e-
8AL	spi-	4a	-stin-
8B	.	.	.
8c	.	8g	-gua'l
8dJ	.	8f	mio
2.e	.	4g	fo-
.	.	4g	-co>
.	.	4r	.
4c	-ri	4e	or
=145	=145	=145	=145
8fL	l'Au-	8aL	spi-
8e	.	8g	.
8f	.	8f	.
8gJ	.	8eJ	.
4f	.	4d	.
4d	-ra,	4f	-ri
4r	.	2e	l'Au-
4e	<O	.	.
8gL	spi-	4e	-ra,
8f	.	.	.
8e	.	4B	<o
8dJ	.	.	.
=146	=146	=146	=146
4c	.	4.e	spi-
4c	-ri	.	.
.	.	8e	-ri
2B	l'Au-	2e	l'Au-
1A	-ra,>	1e	-ra,>
=147	=147	=147	=147
1r	.	2r	.
.	.	2.d	P
2r	.	.	.
.	.	4d	s'a-
2B	O	4d#X	-dom-
.	.	8d#i	-bri-
.	.	8d#i	-n'i
=148	=148	=148	=148
4B	s'a-	4.e	rag-
4.e	-dom-	.	.
.	.	8f	.
.	.	4.g	.
8d	-bri-	.	.
4c	-n'i-	.	.
.	.	16fL	.
.	.	16eJ	.
4G	-rag-	2dnXi	.
2G	-gi o	.	.
.	.	2c	-gi
[4c	cre-	.	.
=149	=149	=149	=149
4c]	.	4c	o
4A	-sca,	2f	cre-
4A	o	.	.
2d	cre-	4d	-sca,
.	.	4d	o
4B	-sca'l	2g	cre-
4.e	ri-	.	.
.	.	4e	-sca'l
8d	.	.	.
=150	=150	=150	=150
8cL	.	8gL	ri-
8d	.	8f	.
8e	.	8e	.
8dJ	.	8fJ	.
8cL	.	8gL	.
8d	.	8f	.
8e	.	8e	.
8fJ	.	8dJ	.
2g	.	4c	.
.	.	4G	-vo,
2c	-vo,	4r	.
.	.	4g	il
=151	=151	=151	=151
4r	.	8eL	ri-
.	.	8f	.
4g	o	8g	.
.	.	8fJ	.
8gL	cre-	8eL	.
8f	.	8dJ	.
8e	.	4c	.
8dJ	.	.	.
4e	.	2g	-vo,
4c	-sca'l	.	.
[2g	ri-	2r	.
=152	=152	=152	=152
4g]	.	1r	.
4f	.	.	.
2e	.	.	.
2f#X	-vo,	2r	.
4r	.	4r	.
8f#i	E	8d	E
8f#i	se	8d	se
=153	=153	=153	=153
4f#i	scal-	4d	scal-
8f#i	-da	8d	-da
8g	la	8B	la
2e	fiam-	2c	fiam-
2d	-ma,	2G	-ma
2r	.	2r	.
=154	=154	=154	=154
2r	.	1r	.
4r	.	.	.
8d	<E	.	.
8d	se	.	.
4d	scal-	4r	.
8d	-da	4g	in-
8B	la	.	.
4c	fiam-	2e	-stil-
4G	-ma>	.	.
=155	=155	=155	=155
4r	.	4d	-li,
4g	in-	8g	E
.	.	8g	se
2e	-stil-	4g	scal-
.	.	8g	-da
.	.	8e	la
2c	-li,	4f	fiam-
.	.	4c	-ma,
4r	.	2r	.
8g	E	.	.
8g	se	.	.
=156	=156	=156	=156
4g	scal-	1r	.
8g	-da	.	.
8e	la	.	.
4f	fiam-	.	.
4d	-ma in-	.	.
4d	-stil-	2r	.
4g	-l'il	.	.
[2f	fon-	4r	.
.	.	8d	E
.	.	8d	se
=157	=157	=157	=157
4f]	.	4d	scal-
4g	-te,	8d	-da
.	.	8B	la
2r	.	4c	fiam-
.	.	4G	-ma,
4r	.	1r	.
4d	in-	.	.
2B	-stil-	.	.
=158	=158	=158	=158
2A	-li il	4r	.
.	.	8a	<E
.	.	8a	se
2d	fon-	4a	scal-
.	.	8a	-da
.	.	8f#X	la
2G	-te,	4g	fiam-
.	.	4d	-ma,>
4r	.	2r	.
8d	E	.	.
8d	se	.	.
=159	=159	=159	=159
4d	scal-	4r	.
8d	-da	8g	<E
8B	la	8g	se
4c	fiam-	4g	scal-
4G	-ma	8g	-da
.	.	8e	la
4r	.	4fnXi	fiam-
4d	in-	4d	-ma>
4B	-stil-	4r	.
4G	-li il	4g	in-
=160	=160	=160	=160
2c	fon-	4.e	-stil-
.	.	8d	.
4G	-te,	4c	.
4g	<in-	4G	-li il
4e	-stil-	1G	fon-
4d	-li il	.	.
8cL	fon-	.	.
8dJ	.	.	.
4e	.	.	.
=161	=161	=161	=161
0dl	-te.>	0Gl	-te.
==	==	==	==
*-	*-	*-	*-
!!!system-decoration: [*]
!!!RDF**kern: i = editorial accidental
!!!RDF**kern: l = terminal long
!!!ENC: Emiliano Ricciardi
!!!END: 2018
!!!EED: Ricciardi, Emiliano
!!!EEV: 2018/10/28
!!!YEC: Copyright 2018 Emiliano Ricciardi, All Rights Reserved
!!!ONB: Translated from MusicXML on 2018/10/28 and edited by Craig Stuart Sapp
!!@@BEGIN:	VERSEDATA
!!@SOLERTI:	160
!!@CATALOGNUM:	Trm0160
!!@LAST_MODIFIED: 2020/07/12
!!@TITLE:		Poi che non spira al mio soave foco
!!@GENRE:		sestina
!!@MANUSRC:	none
!!@PRINTSRC:	85, 87, 141, 166, 169
!!@@BEGIN:	VERSES
!!@ABOUTIT:	Parla del suo amore sotto metafora di fuoco e de la sua donna sotto quella de l'aura.
!!@ABOUTEN:	He speaks of his love under the metaphor of fire and of his lady under that of air.
!!@EDITOR:	Solerti, Angelo
!!@EDITION_TITLE: Le Rime di Torquato Tasso
!!@EDITION_LOC:	Bologna
!!@EDITION_PUB:	Romagnoli-Dall’Acqua
!!@EDITION_DATE:  1898-1902
!!@EDITION_VOL:	2
!!@EDITION_PAGE:  241-42
!!@TRANSLATOR:	Emiliano Ricciardi and Amyrose McCue Gill
!!@VERSE:
!!	Poi che non spira al mio soave foco,
!!	Amor, come solea, placida l'aura,
!!	Chi temprerà quest'amorosa fiamma?
!!	Qual troverò solinga e chiara fonte
!!	Cinta di lauri o quale ombroso rivo,
!!	Mentre io mi sfaccio a sì lucenti raggi?
!!@VERSE:
!!	Ahi! soavi ben furo e dolci i raggi
!!	Ch'acceser già ne l'alma il dolce foco,
!!	Struggendo il gelo interno in caldo rivo
!!	E movendo i sospiri a guisa d'aura,
!!	Mentre d'ogni pietà la viva fonte
!!	Diè qualche refrigerio a tanta fiamma.
!!@VERSE:
!!	D'Etna somiglia pur l'accesa fiamma
!!	O di Fetonte traviato i raggi,
!!	Quando s'ascose ne l'occulto fonte
!!	Il Nilo per fuggir l'ardente foco,
!!	Né da l'Istro o dal Reno o vento od aura
!!	Soffiar potea non che da secco rivo.
!!@VERSE:
!!	Che giova, oimè, versar nel seno un rivo,
!!	Se cresce al suo stillar la crudel fiamma
!!	E de' lamenti miei s'accende a l'aura?
!!	Se non manca omai l'esca a questi raggi,
!!	Io fontana sarò di vivo foco,
!!	Né mi varrà ch'io mi converta in fonte.
!!@VERSE:
!!	Perché la dolce mia tranquilla fonte
!!	Più non mi scampi o fiume algente o rivo,
!!	Fuggirò il foco in mezzo al novo foco,
!!	E le mie fiamme struggerà la fiamma
!!	Che nacque in me da gli amorosi raggi,
!!	Mentre io gioiva il seno aprendo a l'aura.
!!@VERSE:
!!	O lauri, o palme, ove giacendo a l'aura
!!	Per dolcezza languiva; o bella fonte,
!!	In cui già vidi tremolare i raggi;
!!	O solitaria chiostra, o vago rivo;
!!	S'io trovo ancor quella mia cara fiamma
!!	Tra i fiori e l'erbe ov'è sparito il foco!
!!@VERSE:
!!	O s'estingua il mio foco o spiri l'aura,
!!	O s'adombrino i raggi o cresca il rivo,
!!	E se scalda la fiamma instilli il fonte.
!!@TVERSE:
!!	Since over my pleasant fire,
!!	Love, the calm air no longer blows as it once did,
!!	Who will temper this amorous flame?
!!	Which secluded and clear spring will I find
!!	Surrounded by laurels, or which shady river,
!!	While I am undone by such luminous eyes?
!!@TVERSE:
!!	Alas! So pleasing and sweet were the rays
!!	That they were already igniting in my soul the sweet fire,
!!	Melting my internal chill into a hot river
!!	And stirring sighs like gusts of wind,
!!	While the living spring of all compassion
!!	Gave some respite from so much flame.
!!@TVERSE:
!!	From Etna, even, seems this burning flame,
!!	Or rays from misdirected Phaethon,
!!	When the Nile concealed itself in the secret spring
!!	To escape the blazing fire,
!!	Neither from the Danube nor from the Rhine, neither wind nor breeze
!!	Could blow, nor from a dry river.
!!@TVERSE:
!!	Alas! What use is it to pour into the breast a river
!!	If the cruel flame grows with its flow
!!	And ignites itself with the gust of my laments?
!!	If there is not now an escape for these rays,
!!	I will be a fountain of living fire,
!!	Nor will it be worth it for me to transform into a spring.
!!@TVERSE:
!!	So that my sweet tranquil spring
!!	No more escapes me, nor frozen stream nor river,
!!	I will flee the fire in the midst of a new fire,
!!	And my flames will snuff the flame
!!	That was ignited in me by the amorous rays,
!!	While I was delighting in my breast opening to the breeze.
!!@TVERSE:
!!	O laurels, o palms, where, lying in the breeze,
!!	She was languishing from sweetness; o beautiful spring,
!!	In which I once saw the flickering rays;
!!	O lonely cloister, o lovely river;
!!	If only I were to find again that dear flame of mine,
!!	Among the flowers and the pastures where the fire vanished!
!!@TVERSE:
!!	Either may my fire extinguish itself, or may the breeze blow,
!!	Either may the rays veil themselves, or may the river rise,
!!	And should the flame ignite, may the spring douse [it].
!!@@END:		VERSES
!!@OTHER_CRIT_ED:   Torquato Tasso, <i>Rime d’amore con l'esposizione dello stesso Autore (secondo la stampa di Mantova, Osanna, 1591)</i>, ed. Vania De Maldé, vol. 4 of <i>Edizione
!!		Nazionale delle opere di Torquato Tasso</i>
!!		(Alessandria: Edizioni Dell’Orso, 2016), 205-6.
!!@ATTRIBUTION_ABOUT:	Secure
!!		<br>
!!		This poem appears in the print supervised by Tasso himself, <i> Delle rime del Sig. Torquato Tasso. Parte prima. Di nuovo dal medesimo in questa nuova impressione ordinate, corrette, accresciute, et date in luce. Con l'esposizione dello stesso autore</i> (Mantua: Osanna, 1591).
!!@DATING:
!!@DEDICATEE:	Peperara, Laura ?
!!@COMMENTARY:
!!@@END:		VERSEDATA
!!@@BEGIN:	SETTING
!!@CATALOGNUM:	Trm0160a
!!@RIMETITLE:	Poi che non spira al mio soave foco
!!@SOLERTI:	160
!!@COMPOSER:	Capilupi, Geminiano
!!@PRINCEPSTITLE:	Il secondo libro de madrigali a cinque voci
!!@PRINCEPSLOC:	Venetia
!!@NORMLOC:	Venice
!!@NORMPUB:	Angelo Gardano
!!@NORMPUBSHORT:	Gardano
!!@PRINCEPSPUB:	Gardano
!!@PRINCEPSYEAR:	1608
!!@PRINCEPSRISM:	C 912
!!@REPRINTS:	
!!@OVOICES:	5
!!@EXTANTVOICES:	2
!!@PARTBOOKS:	
!!@EXTPARTBOOKS:	
!!@OCLEFS:	C3,C3
!!@OMENSURATION:	C; 3; C
!!@OKEYSIG:	-
!!@FINAL:	G
!!@TIMPEDITOR:	Ricciardi, Emiliano
!!@NOTE:		
!!@@END:		SETTING
